icons/src/svg/mileage.svg

<svg width="32" height="32" viewBox="0 0 32 32" fill="none" xmlns="http://www.w3.org/2000/svg">
<path fill-rule="evenodd" clip-rule="evenodd" d="M16 4L16.0116 4.00007C19.5572 4.00298 23.1018 5.34439 25.8226 8.02429C25.8516 8.04745 25.8796 8.07245 25.9064 8.09929C25.9334 8.12628 25.9586 8.15443 25.9818 8.18358C28.6591 10.905 29.9985 14.4491 30 17.9938V18.0063C29.9984 21.3542 28.8034 24.7017 26.415 27.3562C26.0324 27.7814 25.4939 28 24.9547 28H7.04524C6.5061 28 5.96761 27.7814 5.58499 27.3562C0.643218 21.8639 0.810459 13.4049 6.08684 8.11424L6.10149 8.09929L6.11662 8.08447C8.8453 5.36447 12.4164 4.003 15.9884 4.00007L16 4ZM15 8V6.04154C12.582 6.24254 10.2132 7.17391 8.25209 8.83568L9.6384 10.222C10.0289 10.6125 10.0289 11.2457 9.6384 11.6362C9.24788 12.0267 8.61471 12.0267 8.22419 11.6362L6.83769 10.2497C5.1747 12.2113 4.24263 14.581 4.04149 17H6C6.55228 17 7 17.4477 7 18C7 18.5523 6.55228 19 6 19H4.04144C4.25105 21.5228 5.25565 23.9918 7.05523 26H24.9447C26.7443 23.9918 27.7489 21.5228 27.9585 19H26C25.4477 19 25 18.5523 25 18C25 17.4477 25.4477 17 26 17H27.9585C27.7575 14.5827 26.8266 12.2147 25.1659 10.254L23.7837 11.6362C23.3932 12.0267 22.7601 12.0267 22.3695 11.6362C21.979 11.2457 21.979 10.6125 22.3695 10.222L23.7522 8.83933C21.7902 7.17528 19.4198 6.24269 17 6.04155V8C17 8.55229 16.5523 9 16 9C15.4477 9 15 8.55229 15 8Z" fill="#0D0F13"/>
<path fill-rule="evenodd" clip-rule="evenodd" d="M9 18C9 17.4477 9.44772 17 10 17H22C22.5523 17 23 17.4477 23 18V22C23 22.5523 22.5523 23 22 23H10C9.44772 23 9 22.5523 9 22V18ZM11 19V21H21V19H11Z" fill="#0D0F13"/>
</svg>

<svg fill="none" xmlns="http://www.w3.org/2000/svg" viewBox="0 0 32 32">
  <path fill-rule="evenodd" clip-rule="evenodd" d="M16 4h.012a13.955 13.955 0 0 1 9.81 4.024 1.002 1.002 0 0 1 .16.16A13.955 13.955 0 0 1 30 17.994v.012a13.956 13.956 0 0 1-3.585 9.35 1.962 1.962 0 0 1-1.46.644H7.045c-.539 0-1.077-.219-1.46-.644C.643 21.864.81 13.405 6.087 8.114L6.1 8.1l.016-.015A13.956 13.956 0 0 1 15.988 4H16Zm-1 4V6.042a11.947 11.947 0 0 0-6.748 2.794l1.386 1.386a1 1 0 0 1-1.414 1.414L6.838 10.25A11.948 11.948 0 0 0 4.04 17H6a1 1 0 1 1 0 2H4.041a11.946 11.946 0 0 0 3.014 7h17.89a11.945 11.945 0 0 0 3.014-7H26a1 1 0 1 1 0-2h1.959a11.948 11.948 0 0 0-2.793-6.746l-1.382 1.382a1 1 0 0 1-1.415-1.414l1.383-1.383A11.947 11.947 0 0 0 17 6.042V8a1 1 0 1 1-2 0Z" fill="currentColor"/>
  <path fill-rule="evenodd" clip-rule="evenodd" d="M9 18a1 1 0 0 1 1-1h12a1 1 0 0 1 1 1v4a1 1 0 0 1-1 1H10a1 1 0 0 1-1-1v-4Zm2 1v2h10v-2H11Z" fill="currentColor"/>
</svg>
